X: 7
T: The Lilting Fisherman
R: reel
M: 4/4
L: 1/8
K: Cmaj
|:G3E GAcd | edcB cA A2 | GE E2 GAcd | edcB c3A |
G3E GAcd | edcB cA A2 | GE E2 GAcd | edcB c3d ||
|:eg g2 agea | gede cA A2 | eg g2 ea a2 | gabg a3g |
eg g2 agea | gede cA A2 | GE E2 GAcd | edcB c3A ||


Tune 345	Setting 345

